X: 503
T:Once More I Hail Thee!
M:3/4
L:1/8
B:O'Neill's 503
N:"Moderate" "collected by Walsh"
Z:Transcribed by Dave Wooldridge
K:F
F2 F2 Ac|d2 d2 fd|cA F2 3AGF|FGFE D2 CD/2E/2|
GF2 FG Ac|d3 d fe|dcA F2 AG|G4 F z||
f2 fedc|cd d2 fd|cA F2 3AGF|FGFE D2 C2|
F2 F2 Ac|cd2 d2 fd|cA F2 AG|G4 F z||
